packages/ffe-icons/icons/filled/sm/weight.svg

<svg xmlns="http://www.w3.org/2000/svg" height="20" viewBox="0 -960 960 960" width="20"><path d="M480-627.999q20.4 0 34.2-13.8 13.8-13.8 13.8-34.2 0-20.4-13.8-34.2-13.8-13.8-34.2-13.8-20.4 0-34.2 13.8-13.8 13.8-13.8 34.2 0 20.4 13.8 34.2 13.8 13.8 34.2 13.8Zm87.691 0h68.924q24.469 0 42.273 15.385 17.803 15.384 21.034 40.077l45.538 335.382q4.615 28.978-14.655 51.066t-49.084 22.088H278.507q-29.813 0-49.198-22.088-19.384-22.088-14.769-51.066l45.538-335.382q3.231-24.693 21.034-40.077 17.804-15.385 42.273-15.385h68.924q-6.154-10.23-9.231-22.615-3.077-12.385-3.077-25.385 0-41.922 29.038-70.96 29.039-29.038 70.961-29.038t70.961 29.038q29.038 29.038 29.038 70.96 0 13-3.077 25.385-3.077 12.385-9.231 22.615Z"/></svg>

<svg xmlns="http://www.w3.org/2000/svg" height="20" viewBox="0 -960 960 960" width="20"><path d="M480-628q20.4 0 34.2-13.8Q528-655.6 528-676q0-20.4-13.8-34.2Q500.4-724 480-724q-20.4 0-34.2 13.8Q432-696.4 432-676q0 20.4 13.8 34.2Q459.6-628 480-628Zm87.69 0h68.92q24.47 0 42.28 15.39 17.8 15.38 21.03 40.07l45.54 335.39q4.62 28.97-14.66 51.06Q711.53-164 681.72-164H278.51q-29.82 0-49.2-22.09-19.39-22.09-14.77-51.06l45.54-335.39q3.23-24.69 21.03-40.07Q298.92-628 323.39-628h68.92q-6.15-10.23-9.23-22.61Q380-663 380-676q0-41.92 29.04-70.96Q438.08-776 480-776q41.92 0 70.96 29.04Q580-717.92 580-676q0 13-3.08 25.39-3.08 12.38-9.23 22.61Z"/></svg>
